public/avatar/shoe/132.svg

<svg xmlns:xlink="http://www.w3.org/1999/xlink" height="38.3" width="36.05" xmlns="http://www.w3.org/2000/svg"><use height="20.4" transform="translate(11.05 8.7)" width="22.25" xlink:href="#a"/><defs><g id="a" fill-rule="evenodd"><path d="M-7.95-.75q-1.25-.6-1.25-2Q-9.2-5-7.05-5l.5.05.75.4.15.1.05-.1q.6-1.6 2.25-1.6 1.25 0 1.95 1.1.5.65.5 1.45 0 .8-.45 1.5Q.25-1.45.25.05.25 2.3-2.3 2.3l-1.1-.25Q-4.15 3.3-5.7 3.3q-2.8 0-2.8-2.6 0-.65.55-1.45" fill="#490200" transform="translate(12.75 6.15)"/><path d="M-7.3-.85q-.95-.55-.95-1.65 0-1.75 1.7-1.75h.35l.65.3.15.1v-.1q.55-1.3 1.8-1.3 1 0 1.6.85.35.55.35 1.25 0 .65-.35 1.2 1.15.4 1.15 1.7 0 1.8-1.9 1.8l-.85-.15q-.7 1-1.95 1Q-7.7 2.4-7.7.3q0-.6.4-1.15" fill="#ff59ff" transform="translate(12.75 6.15)"/><path d="m-6.1-3.6.85.3.55-.7.85-.35.6.15q.95.4.95 1.45 0 .6-.25.9.85.45.85 1.3Q-1.7.9-3.15.9l-.7-.2q-.45.8-1.45.8Q-7 1.5-7-.1l.3-.9q-.7-.4-.7-1.25 0-1.35 1.3-1.35" fill="#ffb0ff" transform="translate(12.75 6.15)"/><path d="M-3.35-1.65q.55.2.55.8 0 .85-.9.85l-.4-.1q-.3.5-.9.5-1.1 0-1.1-.95l.25-.6q-.5-.2-.5-.75 0-.9.85-.9l.5.25q.25-.7.9-.7.95 0 .95 1l-.2.6" fill="#ff59ff" transform="translate(12.75 6.15)"/><path d="m-5.15-1.3-.2-.35.35-.45.25.15q.1-.3.45-.3.4 0 .4.45l-.05.25.25.4q0 .4-.45.4L-4.3-.8q-.25.25-.45.25-.5 0-.5-.5l.1-.25" fill="#ffb0ff" transform="translate(12.75 6.15)"/><path d="M9.15 6q.6.8.2 3.2v.2l-.15.1q-5.1 5.35-14.05 4.7-6.2-.45-7.6-2.45l-.05-.1-.15-.35q-.3-1.5.25-2.95l.1-.3.4-.05Q8.55 5.25 9.15 6" fill="#3f0f0f" transform="translate(12.75 6.15)"/><path d="M8.1 6.2q.45.6.2 2.65Q3.95 13.3-3.65 13.1q-6.4-.2-7.85-1.95-.15-1.75.2-2.65Q7.75 5.7 8.1 6.2" fill="#b74513" transform="translate(12.75 6.15)"/><path d="M8.1 6.2q.45.6.2 2.65-3.1 3.1-8 3.95-1.05-3-3.7-5.45L8.1 6.2" fill="#912c09" transform="translate(12.75 6.15)"/><path d="m3.7 3.55 1.2.4q4.55 1 4.25 2.45Q8.9 7.45 6.8 8.85 0 13.2-9.8 11.05q-1.95-.75-2.35-1.95-.35-.8-.05-1.1v-.1l.1-.15Q-10.4 6-3.8 4.5q6.2-1.4 7.5-.95" fill="#3f0f0f" transform="translate(12.75 6.15)"/><path d="M3.1 9.5q-5.9 2.1-12.6.45-2.3-.85-1.3-1.85Q-9.25 6.5-3.15 5q5.55-1.25 6.6-.9l2.8.85q2 .6 1.85 1.35-.3 1.6-5 3.2" fill="#912c09" transform="translate(12.75 6.15)"/><path d="m7.75-3.05.2.25q1 4.5.15 7.45-1.15 4-7.65 5-.65.85-5.25.6-5-.25-6.45-2.05l-.05-.15Q-13 4.3-5.3-.2l.45-.3q.4-.35.9-1.95.4-1.5 1-1.7 7-2.55 10.7 1.1" fill="#333" transform="translate(12.75 6.15)"/><path d="M6.85-2.4q.85 3.65.2 6.7Q6.8 7.2.4 8.5q-.95 1.1-5.05.85-4.25-.25-5.6-1.9-.85-2.35 2.55-4.9l3.75-2.3q.9-3.2 1.5-3.4 1.85-.8 3.55-1 3.5-.4 5.75 1.75" fill="#fff" transform="translate(12.75 6.15)"/><path d="M4.95-3.65q1.1.5 1.9 1.25.85 3.65.2 6.7Q6.8 7.2.4 8.5q-.1.3-1.1.6l-1.55.1q-.35-2.6 3.5-5.35Q5.2 1 4.95-3.65" fill="#b8bcbc" transform="translate(12.75 6.15)"/><path d="M-4.5 9.35q-.55-1.65.05-2.85l1 .75q-.4 1.3 0 2.2l-.25.25q-.55.25-.8-.35m2.8-3.95q.05.3-1.65 1.5l-.1.35-1-.75.05-.2q2.65-1.2 2.7-.9m-4-.4-.4.35-.3-.2.7-.15m-1.55.85.85-.7.3.2q-1.15 1-.9 3.6 0 .5-.35.5-.45.15-.55-.35-.25-1.95.65-3.25m-2.8 2.75q-.1-2 .95-3.25.85-1.1 1.5-.75l-.85.85q-.9 1.15-.75 2.95.15.45-.3.55l-.55-.35" fill="#333" transform="translate(12.75 6.15)"/><path d="M3.45 6.5q1.2 1.75.5 2.55-.45.4-2.5.9L.9 9.7q-.25-.2-.1-.55.35-1.1-.1-1.75-1-1.4-4-1.4l-.55-.35q-.4-1.3-2.8-1.8-2.65-.6-3.55.45l-.8.05-.2-.5.1-.3.05-.05Q-8.45.05-4.8 1.3q2.1.75 2.85 2.15Q1.7 3.2 3.45 6.5" fill="#3f0f0f" transform="translate(12.75 6.15)"/><path d="m3.15 8.4-1.2.65Q2.4 6.5-.2 5.5L-2.95 5q-1.55-1.9-4.1-2.15-2.25-.25-3.4.85 2.05-2.5 5.2-1.35 2.8.95 2.75 2.05 4.65-.65 5.65 4" fill="#b74513" transform="translate(12.75 6.15)"/><path d="m-2.5 4.4-.45.6q-1.3-1.7-3.7-2.1l.7-.8q1.3.3 2.5 1.15.95.8.95 1.15m3.4.55q1.2.75 1.9 2.1.6 1.05.35 1.35l-1.2.65q.45-2.4-1.8-3.4l.75-.7" fill="#912c09" transform="translate(12.75 6.15)"/><path d="m8.1-1.95.5.35q.15.25-.3.35l-6.55.3q-3.7-.3-5.3-.9l-.7-.55v-.1q.05-1.05.4-1.4v-.05l.4-.25h.4Q-.4-3.1 8.1-1.95" fill="#3f0f0f" transform="translate(12.75 6.15)"/><path d="M1.4-1.55q-3.65-.45-4.7-1-.15-.6.15-1 2.05.8 10.5 1.9-1.95.55-5.95.1" fill="#b74513" transform="translate(12.75 6.15)"/><path d="M7.35-1.65 2.7-1.4v-.85l4.65.6" fill="#912c09" transform="translate(12.75 6.15)"/><path d="m7.8-2.1.5.1.3.4.05.15q.3.75.25 2.3L8.85 1 8 1.75 2.15 2Q-2.4 1.55-5 .1q-.4-.2-.3-.65l.6-.45q9 0 12.5-1.1" fill="#3f0f0f" transform="translate(12.75 6.15)"/><path d="M7.8.45q-1.15.7-5.15.65Q-1.85 1-3.9-.3l11.7-.75q.45.45 0 1.5" fill="#b74513" transform="translate(12.75 6.15)"/><path d="M3.65-.4Q6.5-.55 7.8-1.05q.45.45 0 1.5-.9.65-4.65.65l.5-1.5" fill="#912c09" transform="translate(12.75 6.15)"/></g></defs></svg>

<?xml version="1.0" encoding="UTF-8" standalone="no"?>
<svg xmlns:xlink="http://www.w3.org/1999/xlink" height="38.3px" width="36.05px" xmlns="http://www.w3.org/2000/svg">
  <g transform="matrix(1.0, 0.0, 0.0, 1.0, 23.8, 14.85)">
    <use height="20.4" transform="matrix(1.0, 0.0, 0.0, 1.0, -12.75, -6.15)" width="22.25" xlink:href="#shape0"/>
  </g>
  <defs>
    <g id="shape0" transform="matrix(1.0, 0.0, 0.0, 1.0, 12.75, 6.15)">
      <path d="M-7.95 -0.75 Q-9.2 -1.35 -9.2 -2.75 -9.2 -5.0 -7.05 -5.0 L-6.55 -4.95 -5.8 -4.55 -5.65 -4.45 -5.6 -4.55 Q-5.0 -6.15 -3.35 -6.15 -2.1 -6.15 -1.4 -5.05 -0.9 -4.4 -0.9 -3.6 -0.9 -2.8 -1.35 -2.1 0.25 -1.45 0.25 0.05 0.25 2.3 -2.3 2.3 L-3.4 2.05 Q-4.15 3.3 -5.7 3.3 -8.5 3.3 -8.5 0.7 -8.5 0.05 -7.95 -0.75" fill="#490200" fill-rule="evenodd" stroke="none"/>
      <path d="M-7.3 -0.85 Q-8.25 -1.4 -8.25 -2.5 -8.25 -4.25 -6.55 -4.25 L-6.2 -4.25 -5.55 -3.95 -5.4 -3.85 -5.4 -3.95 Q-4.85 -5.25 -3.6 -5.25 -2.6 -5.25 -2.0 -4.4 -1.65 -3.85 -1.65 -3.15 -1.65 -2.5 -2.0 -1.95 -0.85 -1.55 -0.85 -0.25 -0.85 1.55 -2.75 1.55 L-3.6 1.4 Q-4.3 2.4 -5.55 2.4 -7.7 2.4 -7.7 0.3 -7.7 -0.3 -7.3 -0.85" fill="#ff59ff" fill-rule="evenodd" stroke="none"/>
      <path d="M-6.1 -3.6 L-5.25 -3.3 -4.7 -4.0 -3.85 -4.35 -3.25 -4.2 Q-2.3 -3.8 -2.3 -2.75 -2.3 -2.15 -2.55 -1.85 -1.7 -1.4 -1.7 -0.55 -1.7 0.9 -3.15 0.9 L-3.85 0.7 Q-4.3 1.5 -5.3 1.5 -7.0 1.5 -7.0 -0.1 L-6.7 -1.0 Q-7.4 -1.4 -7.4 -2.25 -7.4 -3.6 -6.1 -3.6" fill="#ffb0ff" fill-rule="evenodd" stroke="none"/>
      <path d="M-3.35 -1.65 Q-2.8 -1.45 -2.8 -0.85 -2.8 0.0 -3.7 0.0 L-4.1 -0.1 Q-4.4 0.4 -5.0 0.4 -6.1 0.4 -6.1 -0.55 L-5.85 -1.15 Q-6.35 -1.35 -6.35 -1.9 -6.35 -2.8 -5.5 -2.8 L-5.0 -2.55 Q-4.75 -3.25 -4.1 -3.25 -3.15 -3.25 -3.15 -2.25 L-3.35 -1.65" fill="#ff59ff" fill-rule="evenodd" stroke="none"/>
      <path d="M-5.15 -1.3 L-5.35 -1.65 -5.0 -2.1 -4.75 -1.95 Q-4.65 -2.25 -4.3 -2.25 -3.9 -2.25 -3.9 -1.8 L-3.95 -1.55 -3.7 -1.15 Q-3.7 -0.75 -4.15 -0.75 L-4.3 -0.8 Q-4.55 -0.55 -4.75 -0.55 -5.25 -0.55 -5.25 -1.05 L-5.15 -1.3" fill="#ffb0ff" fill-rule="evenodd" stroke="none"/>
      <path d="M9.15 6.0 Q9.75 6.8 9.35 9.2 L9.35 9.4 9.2 9.5 Q4.1 14.85 -4.85 14.2 -11.05 13.75 -12.45 11.75 L-12.5 11.65 -12.65 11.3 Q-12.95 9.8 -12.4 8.35 L-12.3 8.05 -11.9 8.0 Q8.55 5.25 9.15 6.0" fill="#3f0f0f" fill-rule="evenodd" stroke="none"/>
      <path d="M8.1 6.2 Q8.55 6.8 8.3 8.85 3.95 13.3 -3.65 13.1 -10.05 12.9 -11.5 11.15 -11.65 9.4 -11.3 8.5 7.75 5.7 8.1 6.2" fill="#b74513" fill-rule="evenodd" stroke="none"/>
      <path d="M8.1 6.2 Q8.55 6.8 8.3 8.85 5.2 11.95 0.3 12.8 -0.75 9.8 -3.4 7.35 L8.1 6.2" fill="#912c09" fill-rule="evenodd" stroke="none"/>
      <path d="M3.7 3.55 L4.9 3.95 Q9.45 4.95 9.15 6.4 8.9 7.45 6.8 8.85 0.0 13.2 -9.8 11.05 -11.75 10.3 -12.15 9.1 -12.5 8.3 -12.2 8.0 L-12.2 7.9 -12.1 7.75 Q-10.4 6.0 -3.8 4.5 2.4 3.1 3.7 3.55" fill="#3f0f0f" fill-rule="evenodd" stroke="none"/>
      <path d="M3.1 9.5 Q-2.8 11.6 -9.5 9.95 -11.8 9.1 -10.8 8.1 -9.25 6.5 -3.15 5.0 2.4 3.75 3.45 4.1 L6.25 4.95 Q8.25 5.55 8.1 6.3 7.8 7.9 3.1 9.5" fill="#912c09" fill-rule="evenodd" stroke="none"/>
      <path d="M7.75 -3.05 L7.95 -2.8 Q8.95 1.7 8.1 4.65 6.95 8.65 0.45 9.65 -0.2 10.5 -4.8 10.25 -9.8 10.0 -11.25 8.2 L-11.3 8.05 Q-13.0 4.3 -5.3 -0.2 L-4.85 -0.5 Q-4.45 -0.85 -3.95 -2.45 -3.55 -3.95 -2.95 -4.15 4.05 -6.7 7.75 -3.05" fill="#333333" fill-rule="evenodd" stroke="none"/>
      <path d="M6.85 -2.4 Q7.7 1.25 7.05 4.3 6.8 7.2 0.4 8.5 -0.55 9.6 -4.65 9.35 -8.9 9.1 -10.25 7.45 -11.1 5.1 -7.7 2.55 L-3.95 0.25 Q-3.05 -2.95 -2.45 -3.15 -0.6 -3.95 1.1 -4.15 4.6 -4.55 6.85 -2.4" fill="#ffffff" fill-rule="evenodd" stroke="none"/>
      <path d="M4.95 -3.65 Q6.05 -3.15 6.85 -2.4 7.7 1.25 7.05 4.3 6.8 7.2 0.4 8.5 0.3 8.8 -0.7 9.1 L-2.25 9.2 Q-2.6 6.6 1.25 3.85 5.2 1.0 4.95 -3.65" fill="#b8bcbc" fill-rule="evenodd" stroke="none"/>
      <path d="M-4.5 9.35 Q-5.05 7.7 -4.45 6.5 L-3.45 7.25 Q-3.85 8.55 -3.45 9.45 L-3.7 9.7 Q-4.25 9.95 -4.5 9.35" fill="#333333" fill-rule="evenodd" stroke="none"/>
      <path d="M-1.7 5.4 Q-1.65 5.7 -3.35 6.9 L-3.45 7.25 -4.45 6.5 -4.4 6.3 Q-1.75 5.1 -1.7 5.4" fill="#333333" fill-rule="evenodd" stroke="none"/>
      <path d="M-5.7 5.0 L-6.1 5.35 -6.4 5.15 -5.7 5.0" fill="#333333" fill-rule="evenodd" stroke="none"/>
      <path d="M-7.25 5.85 L-6.4 5.15 -6.1 5.35 Q-7.25 6.35 -7.0 8.95 -7.0 9.45 -7.35 9.45 -7.8 9.6 -7.9 9.1 -8.15 7.15 -7.25 5.85" fill="#333333" fill-rule="evenodd" stroke="none"/>
      <path d="M-10.05 8.6 Q-10.15 6.6 -9.1 5.35 -8.25 4.25 -7.6 4.6 L-8.45 5.45 Q-9.35 6.6 -9.2 8.4 -9.05 8.85 -9.5 8.95 L-10.05 8.6" fill="#333333" fill-rule="evenodd" stroke="none"/>
      <path d="M3.45 6.5 Q4.65 8.25 3.95 9.05 3.5 9.45 1.45 9.95 L0.9 9.7 Q0.65 9.5 0.8 9.15 1.15 8.05 0.7 7.4 -0.3 6.0 -3.3 6.0 L-3.85 5.65 Q-4.25 4.35 -6.65 3.85 -9.3 3.25 -10.2 4.3 L-11.0 4.35 -11.2 3.85 -11.1 3.55 -11.05 3.5 Q-8.45 0.05 -4.8 1.3 -2.7 2.05 -1.95 3.45 1.7 3.2 3.45 6.5" fill="#3f0f0f" fill-rule="evenodd" stroke="none"/>
      <path d="M3.15 8.4 L1.95 9.05 Q2.4 6.5 -0.2 5.5 L-2.95 5.0 Q-4.5 3.1 -7.05 2.85 -9.3 2.6 -10.45 3.7 -8.4 1.2 -5.25 2.35 -2.45 3.3 -2.5 4.4 2.15 3.75 3.15 8.4" fill="#b74513" fill-rule="evenodd" stroke="none"/>
      <path d="M-2.5 4.4 L-2.95 5.0 Q-4.25 3.3 -6.65 2.9 L-5.95 2.1 Q-4.65 2.4 -3.45 3.25 -2.5 4.05 -2.5 4.4" fill="#912c09" fill-rule="evenodd" stroke="none"/>
      <path d="M0.9 4.95 Q2.1 5.7 2.8 7.05 3.4 8.1 3.15 8.4 L1.95 9.05 Q2.4 6.65 0.15 5.65 L0.9 4.95" fill="#912c09" fill-rule="evenodd" stroke="none"/>
      <path d="M8.1 -1.95 L8.6 -1.6 Q8.75 -1.35 8.3 -1.25 L1.75 -0.95 Q-1.95 -1.25 -3.55 -1.85 L-4.25 -2.4 -4.25 -2.5 Q-4.2 -3.55 -3.85 -3.9 L-3.85 -3.95 -3.45 -4.2 -3.05 -4.2 Q-0.4 -3.1 8.1 -1.95" fill="#3f0f0f" fill-rule="evenodd" stroke="none"/>
      <path d="M1.4 -1.55 Q-2.25 -2.0 -3.3 -2.55 -3.45 -3.15 -3.15 -3.55 -1.1 -2.75 7.35 -1.65 5.4 -1.1 1.4 -1.55" fill="#b74513" fill-rule="evenodd" stroke="none"/>
      <path d="M7.35 -1.65 L2.7 -1.4 2.7 -2.25 7.35 -1.65" fill="#912c09" fill-rule="evenodd" stroke="none"/>
      <path d="M7.8 -2.1 L8.3 -2.0 8.6 -1.6 8.65 -1.45 Q8.95 -0.7 8.9 0.85 L8.85 1.0 8.0 1.75 2.15 2.0 Q-2.4 1.55 -5.0 0.1 -5.4 -0.1 -5.3 -0.55 L-4.7 -1.0 Q4.3 -1.0 7.8 -2.1" fill="#3f0f0f" fill-rule="evenodd" stroke="none"/>
      <path d="M7.8 0.45 Q6.65 1.15 2.65 1.1 -1.85 1.0 -3.9 -0.3 L7.8 -1.05 Q8.25 -0.6 7.8 0.45" fill="#b74513" fill-rule="evenodd" stroke="none"/>
      <path d="M3.65 -0.4 Q6.5 -0.55 7.8 -1.05 8.25 -0.6 7.8 0.45 6.9 1.1 3.15 1.1 L3.65 -0.4" fill="#912c09" fill-rule="evenodd" stroke="none"/>
    </g>
  </defs>
</svg>
